X:815
T:Seud Nan Ceud Bliadhna 
C:Joe Buchanan's Scottish Tome - Page 363.0
I:363 0
C:AKA The Jewel of a Hundred Years
Z:Carl Allison
C:Phil Cunningham
R:Strathspey
L:1/8
M:4/4
K:D
d>B | "D"A>AA>B "G"G>Bd>B | "A"A>e"D"d<A "G"B2 (d>B) | "D"A>AA>B d>ef<a | "G"g2 B2 B2 (d>B) |
"D"A>AA>B G>Bd>B | "A"A>e"D"d<A "G"B2 (A>B) | "D"d<dd>f "A7"e>fg<a | "G"f2 d2 d2 :|
(f>g) | "D"a>f"A7"g>e f<a"A"g>e | "D"f<d"G"g>d B2 (d>B) | "D"A>AA>B d>ef<a | "G"g2 B2 B2 (f>g) |
"D"a>fg>e f<a"G"g>e | "D"f<d"G"g>d B2 (A>B) | "D"d<dd>f "A7"e>fg<a | "D"f2 d2 d2 f>g |
"D"a>f"A7"g>e f<a"A"g>e | "D"f<d"G"g>d B2 (d>B) | "D"A>AA>B "A7"d>ef<a | "G"g2 B2 B2 (d>B) |
"D"A>AA>B "G"G>Bd>B | "A7"A>ed<B "G"B2 (A>B) | "D"d>dd>f "A7"e>fg<a | "D"f2 d2 d2 |]
(d>B) | "D"A>AA>B "G"G>GG>B | "D"A>AA<f "A7"e>de<f | "D"A>AA>B d2 (e>f) | "A"g>ef<d "G"B2 (d>B) |
"D"A>AA>B "G"G>Bd>B | "D"A>af<d "G"B2 (A>B) | "D"d>dd>f "A7"e>fg<a | "D"f2 d2 d2 :|
(f>g) | "D"a>AA<a "A7"A<ag>e | "D"fd"G"g>d B2 (d>B) | "D"A>AA>B d>ef<a | "D"g2 B2B2 (f>g) |
"D"a>AA<a "A7"A<ag>e | "D"f<dg>d B2 (A>f) | "D"d>dd>f "A7"e>f<ga | "D"f2 d2 d2 (f>g) |
"D"a>AA<a "A7"A<ag>e | "D"f<d"G"g>d B2 (d>B) | "D"A>AA>B "A7"d>ef<a | "G"g2 B2 B2 (A>B) |
"D"G>Bd>B A>ce<c | "D"d>ef<g "G"B2 (A>B) | "D"d>dd>f "A7"e>fg<a | "D"f2 d2 d2 |]

